X:1
T:Love’s Consecration, CM
T:Love’s Consecration, CM
T:Abram Bowman Kolb, 1902
T:Public Domain Courtesy of the Cyber Hymnal™
C:Abram Bowman Kolb, 1902
Z:Public Domain
Z:Courtesy of the Cyber Hymnal™
%%score ( 1 2 ) ( 3 4 )
L:1/8
Q:1/4=112
M:4/4
K:Ab
V:1 treble 
V:2 treble 
V:3 bass 
V:4 bass 
V:1
 [CE]2 | [Ec]2 [Fd]2 [Ec]2 [EA]2 | [FA]2 [DF]2 [CE]2 [EA]2 | [EG]2 [EA]2 [Ed]2 [Ec]2 | [EB]6 E2 | %5
 [Ec]2 [Fd]2 [Ec]2 [EA]2 | [FA]2 [DF]2 [CE]2 [Ee]2 | [Ee]2 [Ad]2 [Ac]2 [GB]2 | [EA]6 |] %9
V:2
 x2 | x8 | x8 | x8 | x6 E2 | x8 | x8 | x8 | x6 |] %9
V:3
 [A,,A,]2 | [A,,A,]2 [A,,A,]2 [A,,A,]2 [C,A,]2 | [D,A,]2 [F,A,]2 A,2 [A,C]2 | %3
 [B,D]2 [A,C]2 [G,B,]2 A,2 | [E,G,]6 [E,G,]2 | [A,,A,]2 [A,,A,]2 [A,,A,]2 [C,A,]2 | %6
 [D,A,]2 [F,A,]2 A,2 [G,B,]2 | [A,C]2 [D,F]2 [E,E]2 [E,D]2 | [A,,C]6 |] %9
V:4
 x2 | x8 | x4 A,2 x2 | x6 A,2 | x8 | x8 | x4 A,2 x2 | x8 | x6 |] %9

